X: 14691
T: Gan Ainm
R: reel
M: 4/4
K: Bminor
|:B2 fe fedc|ABde cedc|B2 fB caBA|ABBe dcAc|
B2 fB fedc|dcBg fdAB|B2 de dc B2|z2 z d dc B2:|
|:F2 Bd cAFA|BFcE dFcF|B3 d cAFA-|A6 z c|
d2 dc dfed|cAeA fAeA|z2 de dc B2|z2 z d dc B2:|

